X: 25124
T: Mairi's Wedding
R: polka
M: 2/4
K: Ddorian
G/E/|D>D DE|GA B2|AG EG|BA B2|
D>D DE|GA B2|AG E[CG]|D2 D||
B/c/|d>d de|dc B2|AG EG|BA B<d|
d>d de|dc B2|AG E[CG]|D2- D||

